client/src/assets/icons/car-fill.svg

<svg width="25" height="25" viewBox="0 0 25 25" fill="none" xmlns="http://www.w3.org/2000/svg">
<path d="M22.5 11.6875L17.7083 7.83333V5.20833C17.7338 4.68223 17.5497 4.16748 17.1963 3.77694C16.8428 3.38641 16.3489 3.15196 15.8229 3.125H3.94792C3.42559 3.15725 2.937 3.39399 2.588 3.78394C2.239 4.17389 2.05768 4.68564 2.08333 5.20833V15.625C2.07367 16.0387 2.18739 16.4458 2.41001 16.7946C2.63263 17.1434 2.95406 17.4179 3.33333 17.5833C3.1415 18.0527 3.06673 18.5616 3.11549 19.0663C3.16424 19.5709 3.33506 20.0562 3.6132 20.4801C3.89134 20.904 4.26845 21.2538 4.71198 21.4995C5.15551 21.7451 5.65216 21.8792 6.15905 21.89C6.66595 21.9009 7.16788 21.7882 7.62153 21.5618C8.07518 21.3354 8.46693 21.002 8.76297 20.5904C9.05901 20.1788 9.25046 19.7013 9.32079 19.1992C9.39112 18.6971 9.33823 18.1854 9.16667 17.7083H15.7917C15.6203 18.1803 15.5653 18.6867 15.6312 19.1845C15.6971 19.6823 15.8819 20.1569 16.1701 20.5681C16.4583 20.9793 16.8414 21.315 17.2868 21.5467C17.7323 21.7785 18.227 21.8995 18.7292 21.8995C19.2313 21.8995 19.7261 21.7785 20.1715 21.5467C20.617 21.315 21 20.9793 21.2882 20.5681C21.5764 20.1569 21.7613 19.6823 21.8272 19.1845C21.893 18.6867 21.838 18.1803 21.6667 17.7083H21.875C22.1513 17.7083 22.4162 17.5986 22.6116 17.4032C22.8069 17.2079 22.9167 16.9429 22.9167 16.6667V12.5C22.9135 12.3418 22.8743 12.1864 22.8021 12.0457C22.7299 11.9049 22.6266 11.7824 22.5 11.6875ZM20.8333 13V15.625H17.7083V10.5L20.8333 13ZM7.29167 18.75C7.29167 18.956 7.23057 19.1574 7.11612 19.3287C7.00166 19.5 6.83897 19.6335 6.64863 19.7124C6.45829 19.7912 6.24885 19.8118 6.04678 19.7717C5.84472 19.7315 5.65911 19.6322 5.51343 19.4866C5.36775 19.3409 5.26854 19.1553 5.22835 18.9532C5.18816 18.7512 5.20879 18.5417 5.28763 18.3514C5.36647 18.161 5.49998 17.9983 5.67128 17.8839C5.84258 17.7694 6.04398 17.7083 6.25 17.7083C6.52627 17.7083 6.79122 17.8181 6.98657 18.0134C7.18192 18.2088 7.29167 18.4737 7.29167 18.75ZM19.7917 18.75C19.7917 18.956 19.7306 19.1574 19.6161 19.3287C19.5017 19.5 19.339 19.6335 19.1486 19.7124C18.9583 19.7912 18.7488 19.8118 18.5468 19.7717C18.3447 19.7315 18.1591 19.6322 18.0134 19.4866C17.8678 19.3409 17.7685 19.1553 17.7283 18.9532C17.6882 18.7512 17.7088 18.5417 17.7876 18.3514C17.8665 18.161 18 17.9983 18.1713 17.8839C18.3426 17.7694 18.544 17.7083 18.75 17.7083C19.0263 17.7083 19.2912 17.8181 19.4866 18.0134C19.6819 18.2088 19.7917 18.4737 19.7917 18.75Z" fill="black"/>
</svg>

<svg xmlns="http://www.w3.org/2000/svg" width="25" height="25" fill="none" viewBox="0 0 25 25">
  <path fill="#000" d="m22.5 11.688-4.792-3.855V5.208a1.99 1.99 0 0 0-1.885-2.083H3.948a1.99 1.99 0 0 0-1.865 2.083v10.417a2.083 2.083 0 0 0 1.25 1.958 3.125 3.125 0 1 0 5.834.125h6.625a3.124 3.124 0 1 0 5.875 0h.208a1.042 1.042 0 0 0 1.042-1.041V12.5a1.041 1.041 0 0 0-.417-.813ZM20.833 13v2.625h-3.125V10.5l3.125 2.5ZM7.292 18.75a1.042 1.042 0 1 1-2.084 0 1.042 1.042 0 0 1 2.084 0Zm12.5 0a1.041 1.041 0 1 1-2.083 0 1.041 1.041 0 0 1 2.083 0Z"/>
</svg>
